packages/foundations/assets/icons/functional/images/file/notebook_14.svg

<svg width="14" height="14" viewBox="0 0 14 14" fill="none" xmlns="http://www.w3.org/2000/svg">
<g clip-path="url(#clip0_185_990)">
<path fill-rule="evenodd" clip-rule="evenodd" d="M11.2 1.40002C11.5866 1.40002 11.9 1.71343 11.9 2.10002V11.9C11.9 12.2866 11.5866 12.6 11.2 12.6H4.19998C3.81338 12.6 3.49998 12.2866 3.49998 11.9V9.09902L2.79998 9.10002C2.41338 9.10002 2.09998 8.78662 2.09998 8.40002C2.09998 8.01342 2.41338 7.70002 2.79998 7.70002H3.49998V6.30002H2.79998C2.41338 6.30002 2.09998 5.98662 2.09998 5.60002C2.09998 5.21342 2.41338 4.90002 2.79998 4.90002H3.49998V2.10002C3.49998 1.74564 3.76332 1.45277 4.10499 1.40641L4.19998 1.40002H11.2ZM10.5 2.80002H4.89998V11.2H10.5V2.80002ZM9.09998 7.70002V9.10002H6.29998V7.70002H9.09998ZM9.09998 4.90002V6.30002H6.29998V4.90002H9.09998Z" fill="#1A1C1F"/>
</g>
<defs>
<clipPath id="clip0_185_990">
<rect width="14" height="14" fill="white"/>
</clipPath>
</defs>
</svg>

<svg xmlns="http://www.w3.org/2000/svg" width="14" height="14" fill="none"><g clip-path="url(#a)"><path fill="#1A1C1F" fill-rule="evenodd" d="M11.2 1.4a.7.7 0 0 1 .7.7v9.8a.7.7 0 0 1-.7.7h-7a.7.7 0 0 1-.7-.7V9.099l-.7.001a.7.7 0 1 1 0-1.4h.7V6.3h-.7a.7.7 0 1 1 0-1.4h.7V2.1a.7.7 0 0 1 .605-.694L4.2 1.4zm-.7 1.4H4.9v8.4h5.6zM9.1 7.7v1.4H6.3V7.7zm0-2.8v1.4H6.3V4.9z" clip-rule="evenodd"/></g><defs><clipPath id="a"><path fill="#fff" d="M0 0h14v14H0z"/></clipPath></defs></svg>
